**kern
*MM76
*k[b-e-a-d-]
*M2/2
=1
1r
=2
1r
=3
1r
=4
1r
=5
1r
=6
1r
=7
1r
=8
2F
2G
=9
2A-
2BB
=10
4C
4BB-
4AA-
4GG
=11
4FF
4GG
4AA-
4FF
=12
2C
2A-
=13
2G
2A
=14
2G
2GG
=15
2.C
4BB-
=16
4AA-
4GG
4FF
4EE
=17
[1FF
=18
4FF]
4GG
2AA-
=19
4AA
4BB-
4BB
[4C
=20
4C]
2D-
4BB-
=21
1C
=22
2FF
2F
=23
2.G
4F
=24
4E-
4D
4C
4BB
=25
1C
=26
2G
2GG
=27
2C
2D
=28
2E-
2FF#
=29
4GG
4FF
4EE-
4DD
=30
4CC
4BB-
4AA-
4GG
=31
4FF
4D
4BB-
4C
=32
4F
4E-
4D
4G
=33
2.C
4BB-
=34
2AA-
2AA
=35
4BB-
4AA-
4GG
4EE-
=36
4AA-
4E
[2A-
=37
2A]
2G
=38
8F
8G
8E-
8F
8D
8G
8F
8G
=39
8C
8D
8BB-
8C
8AA
8D
8C
8D
=40
4GG
4AA-
4FF
4GG
=41
1CC
=42
2FF
2r
=43
1r
=44
1r
=45
1r
=46
1r
=47
1r
=48
1r
=49
1r
=50
1r
=51
1r
=52
1r
=53
1r
=54
1r
=55
1r
=56
1r
=57
1r
=58
1r
=59
1r
=60
1r
=61
1r
=62
1r
=63
1r
=64
2F
2G
=65
2A-
2BB
=66
4C
4BB-
4AA-
4GG
=67
2FF
2F
=68
2G
2C
=69
8FF
8F
8E-
8F
8D-
8F
8BB-
8D-
=70
8EE-
8E-
8D-
8E-
8C
8E-
8AA-
8C
=71
8D-
8F
8E-
8F
8G
8B-
8E-
8G
=72
4A-
4D-
4E-
4EE-
=73
4AA-
2A-
4G
=74
2A-
2BB-
=75
4E-
4EE-
4FF
4GG
=76
2.AA-
4BB-
=77
2E-
[2EE-
=78
1EE-_
=79
4EE-]
4BB-
4C
4BB-
=80
2AA-
[2A-
=81
8A-]
8B-
8A-
8B-
8G
8A-
8G
8A-
=82
8F
8G
8E-
8F
8D
8G
8F
8G
=83
4C
4D-
4C
4BB-
=84
4AA-
4AA
4BB-
4BB
=85
2C
[2D
=86
2D]
4C
4BB
=87
2C
4r
4C
=88
2G
2GG
=89
2C
2D
=90
2E-
2FF#
=91
4GG
4FF
4EE-
4DD
=92
2CC
4r
4FF#
=93
8GG
8G
8F
8G
8A-
8G
8F
8G
=94
8E-
8G
8F
8G
8E-
8F
8D
8E-
=95
8C
8D-
8BB-
8C
8AA-
8BB-
8GG
8AA-
=96
2FF
2r
=97
1r
=98
1r
=99
1r
=100
1r
=101
1r
=102
1r
=103
1r
=104
1r
=105
1r
=106
1r
=107
1r
=108
1r
=109
1r
=110
1r
=111
1r
=112
1r
=113
1r
=114
1r
=115
1r
=116
1r
=117
1r
=118
1r
=119
1r
=120
2C
2D
=121
2E-
2FF#
=122
4GG
4FF
4EE-
4DD
=123
[1CC
=124
4CC]
4DD
4EE-
4CC
=125
2.GG
4FF
=126
2EE-
4r
4EE
=127
2FF
4r
4AA
=128
2BB-
4r
4BB
=129
2C
4r
4BB-
=130
2AA-
4r
4EE
=131
2FF
4r
4GG
=132
2AA-
4r
4EE
=133
2FF
4r
4GG
=134
2AA-
2r
=135
1r
=136
2r
4r
4BB
=137
2C
2CC
=138
1FF
==
*-
